icons/community_healthworker_fill.svg

<svg width="48" height="48" viewBox="0 0 48 48" fill="none" xmlns="http://www.w3.org/2000/svg">
<path d="M18.4117 9.50012C18.4117 11.4331 16.8447 13.0001 14.9117 13.0001C12.9787 13.0001 11.4117 11.4331 11.4117 9.50012C11.4117 7.56713 12.9787 6.00012 14.9117 6.00012C16.8447 6.00012 18.4117 7.56713 18.4117 9.50012Z" fill="black"/>
<path d="M19.4943 15.0414C19.3805 15.0143 19.2639 15.0006 19.147 15.0006H13.3246L13.3237 15.0011L13.3102 15.0011C13.3014 15.001 13.2925 15.0009 13.2837 15.0011L12.7282 15.0011C11.8687 15.001 10.9407 15.001 10.6746 15.0013C10.5583 15.0015 10.4425 15.0152 10.3293 15.0421C9.20089 15.3106 8.41761 15.9643 7.9135 16.9013C7.47321 17.7197 7.25892 18.7373 7.08187 19.7406L6.02307 25.7407C5.87911 26.5565 6.42376 27.3345 7.23958 27.4785C8.0554 27.6225 8.83346 27.0778 8.97743 26.262L10.0362 20.262C10.1602 19.5593 10.2712 19.0716 10.3875 18.7244L10.6766 22.0001C10.6765 23.8657 8.89078 32.3719 8.25284 35.3512C8.13215 35.9148 8.51146 36.4612 9.08218 36.5419C13.4806 37.1636 16.3437 37.1436 20.7411 36.5373C21.312 36.4586 21.6942 35.9152 21.5761 35.3512C20.9429 32.3254 19.1472 23.6041 19.147 22.0004L19.4361 18.7238C19.5524 19.0711 19.6634 19.5587 19.7874 20.2613L20.8462 26.2613C20.9902 27.0771 21.7682 27.6218 22.584 27.4778C23.3999 27.3338 23.9445 26.5558 23.8005 25.7399L22.7417 19.7399C22.5647 18.7366 22.3504 17.719 21.9101 16.9006C21.406 15.9636 20.6227 15.3099 19.4943 15.0414Z" fill="black"/>
<path d="M11.2734 41.1315L10.8747 38.1186C11.9546 38.2427 12.9842 38.3235 13.9976 38.3619L13.2315 41.2561C13.1093 41.7178 12.6778 42.0286 12.2012 41.9982C11.7247 41.9679 11.3361 41.6048 11.2734 41.1315Z" fill="black"/>
<path d="M16.592 41.2557L15.8321 38.3848C16.8504 38.3716 17.8732 38.3154 18.9358 38.2168L18.5501 41.131C18.4874 41.6044 18.0988 41.9674 17.6223 41.9977C17.1457 42.0281 16.7142 41.7173 16.592 41.2557Z" fill="black"/>
<path d="M33.4118 7.08591L40.6189 14.293L39.2047 15.7072L37.9118 14.4143V20.0001H34.9118V17.5001C34.9118 16.6717 34.2402 16.0001 33.4118 16.0001C32.5833 16.0001 31.9118 16.6717 31.9118 17.5001V20.0001H28.9118V14.4143L27.6188 15.7072L26.2046 14.293L33.4118 7.08591Z" fill="black"/>
<path d="M33.4117 24.5859L42.6189 33.793L41.2046 35.2072L39.2964 33.299V41.0386H35.3733V37.7693C35.3733 36.6859 34.4951 35.8077 33.4118 35.8077C32.3285 35.8077 31.4503 36.6859 31.4503 37.7693V41.0386H27.5272V33.2989L25.6188 35.2072L24.2046 33.793L33.4117 24.5859Z" fill="black"/>
</svg>

<svg
  xmlns="http://www.w3.org/2000/svg"
  width="24"
  height="24"
  viewBox="0 0 24 24"
  fill="none"
  stroke="currentColor"
  stroke-width="2"
  stroke-linecap="round"
  stroke-linejoin="round"
>
  <path d="M18.412 9.5a3.5 3.5 0 1 1-7 0 3.5 3.5 0 0 1 7 0" />
  <path d="M19.494 15.041a1.5 1.5 0 0 0-.347-.04h-8.472q-.175 0-.346.041c-1.128.269-1.911.922-2.416 1.86-.44.818-.654 1.835-.831 2.839l-1.059 6a1.5 1.5 0 0 0 2.954.521l1.06-6c.123-.703.234-1.19.35-1.538l.29 3.276c0 1.866-1.786 10.372-2.424 13.351a.99.99 0 0 0 .83 1.19c4.398.623 7.26.603 11.658-.004a.99.99 0 0 0 .835-1.186c-.633-3.026-2.429-11.747-2.429-13.35l.29-3.277c.115.347.226.835.35 1.537l1.06 6a1.5 1.5 0 1 0 2.953-.521l-1.058-6c-.177-1.003-.392-2.021-.832-2.84-.504-.936-1.287-1.59-2.416-1.859" />
  <path d="m11.273 41.132-.398-3.013c1.08.124 2.11.205 3.123.243l-.766 2.894a1 1 0 0 1-1.959-.124" />
  <path d="m16.592 41.256-.76-2.871a39 39 0 0 0 3.104-.168l-.386 2.914a1 1 0 0 1-1.958.125" />
  <path d="m33.412 7.086 7.207 7.207-1.414 1.414-1.293-1.293V20h-3v-2.5a1.5 1.5 0 0 0-3 0V20h-3v-5.586l-1.293 1.293-1.414-1.414z" />
  <path d="m33.412 24.586 9.207 9.207-1.414 1.414-1.909-1.908v7.74h-3.923v-3.27a1.962 1.962 0 1 0-3.923 0v3.27h-3.923v-7.74l-1.908 1.908-1.414-1.414z" />
</svg>
